X: 252
T: Feed My Horse on Corn and Hay
B: canberra pickers and fiddlers
B: tunes
M:4/4
L:1/8
Q: 1/4=120
K:G
V:1 
(DE|"G"G2 ) GG G2GD|Bd2[dg] [d2g2]((3DEF|G2) GG G2 BG|"D"A[G2B2][GB] "G"G[G2B2]((3DEF|
"G"G2)GG G2[GB]A|B[d2g2][dg] [d2g2][de]-|[e2e2][ee][ef] edBG|"D"A[G2B2]"G"[GB][G2B2]||
gf|e"D"[d2f2][df] [d2f2] eg|f[d2f2][df][d2f2]e(f|"G"g2)g2edBG|"D"A[G2B2][GB]"G"[G2B2]gf|
"D"e[d2f2][df] [d2f2] eg|f[d2f2][df][d2f2]e(f|"G"g2)g2edBG|"D"A[G2B2][GB]"G"[G2B2]||
|:[G,2D2]-|"G"[G,D]B,DG EFG[DA]|[DB][D2d2]e [D2d2][G,2D2]-|[G,D]B,DG  EFGA|"D"BGAF "G"[G,2G2][G,G]([G,E]|
"G"[G,D]B,DG EF)G[DA]|[DB][D2d2][dg][d2g2][de]-|[e2e2]eg fded|"D"B[G2B2][GB]"G"[G2B2]:||
% abcbook-tune_id 63ae8f1cf9e8fc5e8e717993
% abcbook-tune_composer_id 
% abcbook-link-0 https://www.youtube.com/watch?v=fGnY55UEkCg
% abcbook-boost 0
% abcbook-difficulty 0
% abcbook-tags canberra pickers and fiddlers,old time tunes,© free
% abcbook-tablature 
% abcbook-transpose 
% abcbook-tuning GDAD
% abcbook-lastupdated 1738837801512
% abcbook-src-url https://tunebook.net/scrape/tunes.abc
% abcbook-soundfonts 
% abcbook-repeats 1


